AJAX/AJAX.svg

<?xml version="1.0" encoding="UTF-8" standalone="no"?>
<!-- Created with Inkscape (http://www.inkscape.org/) -->

<svg
   xmlns:dc="http://purl.org/dc/elements/1.1/"
   xmlns:cc="http://creativecommons.org/ns#"
   xmlns:rdf="http://www.w3.org/1999/02/22-rdf-syntax-ns#"
   xmlns:svg="http://www.w3.org/2000/svg"
   xmlns="http://www.w3.org/2000/svg"
   xmlns:xlink="http://www.w3.org/1999/xlink"
   xmlns:sodipodi="http://sodipodi.sourceforge.net/DTD/sodipodi-0.dtd"
   xmlns:inkscape="http://www.inkscape.org/namespaces/inkscape"
   id="svg2"
   version="1.1"
   inkscape:version="0.91 r13725"
   width="663.61145"
   height="400.00012"
   viewBox="0 0 663.61145 400.00012"
   sodipodi:docname="AJAX.svg">
  <metadata
     id="metadata8">
    <rdf:RDF>
      <cc:Work
         rdf:about="">
        <dc:format>image/svg+xml</dc:format>
        <dc:type
           rdf:resource="http://purl.org/dc/dcmitype/StillImage" />
        <dc:title></dc:title>
      </cc:Work>
    </rdf:RDF>
  </metadata>
  <defs
     id="defs6">
    <linearGradient
       inkscape:collect="always"
       id="linearGradient4222">
      <stop
         style="stop-color:#70b0df;stop-opacity:1"
         offset="0"
         id="stop4224" />
      <stop
         id="stop4230"
         offset="0.5"
         style="stop-color:#1b81c5;stop-opacity:1" />
      <stop
         style="stop-color:#4a98ce;stop-opacity:1"
         offset="1"
         id="stop4226" />
    </linearGradient>
    <linearGradient
       inkscape:collect="always"
       xlink:href="#linearGradient4222"
       id="linearGradient4228"
       x1="162.67442"
       y1="14.452718"
       x2="162.67442"
       y2="175.03487"
       gradientUnits="userSpaceOnUse" />
  </defs>
  <sodipodi:namedview
     pagecolor="#ffffff"
     bordercolor="#666666"
     borderopacity="1"
     objecttolerance="10"
     gridtolerance="10"
     guidetolerance="10"
     inkscape:pageopacity="0"
     inkscape:pageshadow="2"
     inkscape:window-width="1366"
     inkscape:window-height="715"
     id="namedview4"
     showgrid="false"
     showguides="true"
     inkscape:guide-bbox="true"
     inkscape:snap-bbox="true"
     inkscape:bbox-paths="true"
     inkscape:bbox-nodes="true"
     inkscape:snap-bbox-edge-midpoints="true"
     inkscape:snap-bbox-midpoints="true"
     inkscape:zoom="0.52835716"
     inkscape:cx="103.68325"
     inkscape:cy="158.90954"
     inkscape:window-x="-8"
     inkscape:window-y="22"
     inkscape:window-maximized="1"
     inkscape:current-layer="svg2"
     inkscape:snap-global="false"
     fit-margin-top="100"
     fit-margin-left="100"
     fit-margin-right="100"
     fit-margin-bottom="100" />
  <g
     id="g3344"
     transform="matrix(1.2341807,0,0,1.2341807,85.412379,80.894415)">
    <g
       transform="translate(0,2)"
       style="fill:#8c96a1;fill-opacity:1"
       id="g4204">
      <path
         inkscape:connector-curvature="0"
         id="path4206"
         d="m 48.822266,90.923828 -36.617188,82.017582 23.949219,0 7.119141,-17.38282 36.802734,0 7.11914,17.38282 23.949218,0 -36.708983,-82.017582 -25.613281,0 z m 13.005859,19.337892 6.212891,15.5957 6.21289,15.59766 -12.388672,0.0293 -12.388672,0.0312 6.175782,-15.62695 6.175781,-15.62695 z"
         style="fill:#8c96a1;fill-opacity:1;fill-rule:evenodd;stroke:none;stroke-width:1px;stroke-linecap:butt;stroke-linejoin:miter;stroke-opacity:1" />
      <path
         inkscape:connector-curvature="0"
         style="fill:#8c96a1;fill-opacity:1;fill-rule:evenodd;stroke:none;stroke-width:1px;stroke-linecap:butt;stroke-linejoin:miter;stroke-opacity:1"
         d="m 226.42503,90.923828 -36.61718,82.017582 23.94922,0 7.11914,-17.38282 36.80273,0 7.11914,17.38282 23.94922,0 -36.70898,-82.017582 -25.61329,0 z m 13.00586,19.337892 6.21289,15.5957 6.21289,15.59766 -12.38867,0.0293 -12.38867,0.0312 6.17578,-15.62695 6.17578,-15.62695 z"
         id="path4208" />
      <path
         inkscape:connector-curvature="0"
         id="path4210"
         d="m 295.01111,90.641009 27.19958,0 17.39204,26.153451 18.43818,-26.153451 26.80728,0 -32.29951,39.753241 34.39178,42.82998 -27.19958,0 -19.74585,-27.92252 -19.35355,27.92252 -29.03032,0 35.04561,-42.43768 z"
         style="fill:#8c96a1;fill-opacity:1;fill-rule:evenodd;stroke:none;stroke-width:1px;stroke-linecap:butt;stroke-linejoin:miter;stroke-opacity:1" />
      <path
         inkscape:connector-curvature="0"
         id="path4212"
         d="m 179.94141,55.929688 -32.56055,32.02539 11.20898,10.142578 10.60352,-10.660156 1.18359,0.002 0,61.1543 c 0,7.76349 -6.25018,14.01367 -14.01367,14.01367 l -11.13476,0 c -7.76349,0 -14.01368,-6.25018 -14.01368,-14.01367 l 0,-6.52734 -21.65039,0 0,8.1289 c 0,14.03603 11.29991,25.33594 25.33594,25.33594 l 28.76563,0 c 14.03602,0 25.33593,-11.29991 25.33593,-25.33594 l 0,-62.712891 0.83789,0.002 12.38672,10.613281 9.74024,-10.142578 -32.02539,-32.02539 z"
         style="color:#000000;clip-rule:nonzero;display:inline;overflow:visible;visibility:visible;opacity:1;isolation:auto;mix-blend-mode:normal;color-interpolation:sRGB;color-interpolation-filters:linearRGB;solid-color:#000000;solid-opacity:1;fill:#8c96a1;fill-opacity:1;fill-rule:nonzero;stroke:none;stroke-width:4.5;stroke-linecap:round;stroke-linejoin:miter;stroke-miterlimit:4;stroke-dasharray:none;stroke-dashoffset:0;stroke-opacity:1;marker:none;color-rendering:auto;image-rendering:auto;shape-rendering:auto;text-rendering:auto;enable-background:accumulate" />
      <path
         inkscape:connector-curvature="0"
         style="color:#000000;clip-rule:nonzero;display:inline;overflow:visible;visibility:visible;opacity:1;isolation:auto;mix-blend-mode:normal;color-interpolation:sRGB;color-interpolation-filters:linearRGB;solid-color:#000000;solid-opacity:1;fill:#8c96a1;fill-opacity:1;fill-rule:nonzero;stroke:none;stroke-width:4.5;stroke-linecap:round;stroke-linejoin:miter;stroke-miterlimit:4;stroke-dasharray:none;stroke-dashoffset:0;stroke-opacity:1;marker:none;color-rendering:auto;image-rendering:auto;shape-rendering:auto;text-rendering:auto;enable-background:accumulate"
         d="m 120.2293,135.33257 32.56055,-32.02539 -11.20898,-10.142583 -10.60352,10.660153 -1.18359,-0.002 0,-61.154295 c 0,-7.76349 6.25018,-14.01367 14.01367,-14.01367 l 11.13476,0 c 7.76349,0 14.01368,6.25018 14.01368,14.01367 l 0,6.52734 21.65039,0 0,-8.1289 c 0,-14.03603 -11.29991,-25.33594 -25.33594,-25.33594 l -28.76563,0 c -14.03602,0 -25.33593,11.29991 -25.33593,25.33594 l 0,62.712895 -0.83789,-0.002 -12.386718,-10.613293 -9.74024,10.142583 32.025388,32.02539 z"
         id="path4214" />
    </g>
    <path
       id="path3338"
       d="m 136.50391,15.730469 c -14.03602,0 -25.33594,11.299907 -25.33594,25.335937 l 0,62.712894 -0.83789,-0.002 -12.386721,-10.613278 -9.740234,10.142578 32.025395,32.02539 32.56054,-32.02539 -11.20898,-10.142578 -10.60352,10.660158 -1.18359,-0.002 0,-61.154301 c 0,-7.76349 6.25018,-14.013672 14.01367,-14.013672 l 11.13477,0 c 7.76349,0 14.01367,6.250182 14.01367,14.013672 l 0,6.527343 21.65039,0 0,-8.128906 c 0,-14.03603 -11.29991,-25.335937 -25.33594,-25.335937 l -28.76562,0 z m 43.4375,40.199219 -32.56055,32.02539 11.20898,10.142578 10.60352,-10.660156 1.18359,0.002 0,61.1543 c 0,7.76349 -6.25018,14.01367 -14.01367,14.01367 l -11.13476,0 c -7.76349,0 -14.01368,-6.25018 -14.01368,-14.01367 l 0,-6.52734 -21.65039,0 0,8.1289 c 0,14.03603 11.29991,25.33594 25.33594,25.33594 l 28.76563,0 c 14.03602,0 25.33593,-11.29991 25.33593,-25.33594 l 0,-62.712891 0.83789,0.002 12.38672,10.613281 9.74024,-10.142578 -32.02539,-32.02539 z m 115.07031,34.710937 31.64453,40.146485 -35.04492,42.4375 29.02929,0 19.35352,-27.92383 19.74609,27.92383 27.20118,0 -34.39258,-42.83008 32.29883,-39.753905 -26.80664,0 -18.4375,26.154295 -17.39258,-26.154295 -27.19922,0 z m -246.189454,0.283203 -36.617188,82.017582 23.949219,0 7.119141,-17.38282 36.802734,0 7.11914,17.38282 23.949218,0 -36.708983,-82.017582 -25.613281,0 z m 177.603514,0 -36.61719,82.017582 23.94922,0 7.11914,-17.38282 36.80274,0 7.11914,17.38282 23.94922,0 -36.70899,-82.017582 -25.61328,0 z m -164.597655,19.337892 6.212891,15.5957 6.21289,15.59766 -12.388672,0.0293 -12.388672,0.0312 6.175782,-15.62695 6.175781,-15.62695 z m 177.603515,0 6.21289,15.5957 6.21289,15.59766 -12.38867,0.0293 -12.38867,0.0312 6.17578,-15.62695 6.17578,-15.62695 z"
       style="fill:url(#linearGradient4228);fill-opacity:1;fill-rule:evenodd;stroke:#0c4c75;stroke-width:0.5;stroke-linecap:butt;stroke-linejoin:miter;stroke-miterlimit:4;stroke-dasharray:none;stroke-opacity:1"
       inkscape:connector-curvature="0" />
  </g>
</svg>

<?xml version="1.0" encoding="UTF-8" standalone="no"?>
<!-- Created with Inkscape (http://www.inkscape.org/) -->

<svg
   xmlns:dc="http://purl.org/dc/elements/1.1/"
   xmlns:cc="http://creativecommons.org/ns#"
   xmlns:rdf="http://www.w3.org/1999/02/22-rdf-syntax-ns#"
   xmlns:svg="http://www.w3.org/2000/svg"
   xmlns="http://www.w3.org/2000/svg"
   xmlns:xlink="http://www.w3.org/1999/xlink"
   xmlns:sodipodi="http://sodipodi.sourceforge.net/DTD/sodipodi-0.dtd"
   xmlns:inkscape="http://www.inkscape.org/namespaces/inkscape"
   id="svg2"
   version="1.1"
   inkscape:version="0.91 r13725"
   width="397.5"
   height="191.25"
   viewBox="0 0 397.5 191.25"
   sodipodi:docname="ajax_logo.svg">
  <metadata
     id="metadata8">
    <rdf:RDF>
      <cc:Work
         rdf:about="">
        <dc:format>image/svg+xml</dc:format>
        <dc:type
           rdf:resource="http://purl.org/dc/dcmitype/StillImage" />
        <dc:title></dc:title>
      </cc:Work>
    </rdf:RDF>
  </metadata>
  <defs
     id="defs6">
    <linearGradient
       inkscape:collect="always"
       id="linearGradient4222">
      <stop
         style="stop-color:#70b0df;stop-opacity:1"
         offset="0"
         id="stop4224" />
      <stop
         id="stop4230"
         offset="0.5"
         style="stop-color:#1b81c5;stop-opacity:1" />
      <stop
         style="stop-color:#4a98ce;stop-opacity:1"
         offset="1"
         id="stop4226" />
    </linearGradient>
    <linearGradient
       inkscape:collect="always"
       xlink:href="#linearGradient4222"
       id="linearGradient4228"
       x1="162.67442"
       y1="14.452718"
       x2="162.67442"
       y2="175.03487"
       gradientUnits="userSpaceOnUse" />
  </defs>
  <sodipodi:namedview
     pagecolor="#ffffff"
     bordercolor="#666666"
     borderopacity="1"
     objecttolerance="10"
     gridtolerance="10"
     guidetolerance="10"
     inkscape:pageopacity="0"
     inkscape:pageshadow="2"
     inkscape:window-width="1855"
     inkscape:window-height="1056"
     id="namedview4"
     showgrid="false"
     showguides="true"
     inkscape:guide-bbox="true"
     inkscape:snap-bbox="true"
     inkscape:bbox-paths="true"
     inkscape:bbox-nodes="true"
     inkscape:snap-bbox-edge-midpoints="true"
     inkscape:snap-bbox-midpoints="true"
     inkscape:zoom="1.9117941"
     inkscape:cx="155.83262"
     inkscape:cy="35.915286"
     inkscape:window-x="65"
     inkscape:window-y="24"
     inkscape:window-maximized="1"
     inkscape:current-layer="svg2"
     inkscape:snap-global="false" />
  <g
     id="g4204"
     style="fill:#8c96a1;fill-opacity:1"
     transform="translate(0,2)">
    <path
       style="fill:#8c96a1;fill-opacity:1;fill-rule:evenodd;stroke:none;stroke-width:1px;stroke-linecap:butt;stroke-linejoin:miter;stroke-opacity:1"
       d="m 48.822266,90.923828 -36.617188,82.017582 23.949219,0 7.119141,-17.38282 36.802734,0 7.11914,17.38282 23.949218,0 -36.708983,-82.017582 -25.613281,0 z m 13.005859,19.337892 6.212891,15.5957 6.21289,15.59766 -12.388672,0.0293 -12.388672,0.0312 6.175782,-15.62695 6.175781,-15.62695 z"
       id="path4206"
       inkscape:connector-curvature="0" />
    <path
       id="path4208"
       d="m 226.42503,90.923828 -36.61718,82.017582 23.94922,0 7.11914,-17.38282 36.80273,0 7.11914,17.38282 23.94922,0 -36.70898,-82.017582 -25.61329,0 z m 13.00586,19.337892 6.21289,15.5957 6.21289,15.59766 -12.38867,0.0293 -12.38867,0.0312 6.17578,-15.62695 6.17578,-15.62695 z"
       style="fill:#8c96a1;fill-opacity:1;fill-rule:evenodd;stroke:none;stroke-width:1px;stroke-linecap:butt;stroke-linejoin:miter;stroke-opacity:1"
       inkscape:connector-curvature="0" />
    <path
       style="fill:#8c96a1;fill-opacity:1;fill-rule:evenodd;stroke:none;stroke-width:1px;stroke-linecap:butt;stroke-linejoin:miter;stroke-opacity:1"
       d="m 295.01111,90.641009 27.19958,0 17.39204,26.153451 18.43818,-26.153451 26.80728,0 -32.29951,39.753241 34.39178,42.82998 -27.19958,0 -19.74585,-27.92252 -19.35355,27.92252 -29.03032,0 35.04561,-42.43768 z"
       id="path4210"
       inkscape:connector-curvature="0" />
    <path
       style="color:#000000;clip-rule:nonzero;display:inline;overflow:visible;visibility:visible;opacity:1;isolation:auto;mix-blend-mode:normal;color-interpolation:sRGB;color-interpolation-filters:linearRGB;solid-color:#000000;solid-opacity:1;fill:#8c96a1;fill-opacity:1;fill-rule:nonzero;stroke:none;stroke-width:4.5;stroke-linecap:round;stroke-linejoin:miter;stroke-miterlimit:4;stroke-dasharray:none;stroke-dashoffset:0;stroke-opacity:1;marker:none;color-rendering:auto;image-rendering:auto;shape-rendering:auto;text-rendering:auto;enable-background:accumulate"
       d="m 179.94141,55.929688 -32.56055,32.02539 11.20898,10.142578 10.60352,-10.660156 1.18359,0.002 0,61.154297 c 0,7.76349 -6.25018,14.01367 -14.01367,14.01367 l -11.13476,0 c -7.76349,0 -14.01368,-6.25018 -14.01368,-14.01367 l 0,-6.52734 -21.65039,0 0,8.1289 c 0,14.03603 11.29991,25.33594 25.33594,25.33594 l 28.76563,0 c 14.03602,0 25.33593,-11.29991 25.33593,-25.33594 l 0,-62.712888 0.83789,0.002 12.38672,10.613281 9.74024,-10.142578 -32.02539,-32.02539 z"
       id="path4212"
       inkscape:connector-curvature="0" />
    <path
       id="path4214"
       d="m 120.2293,135.33257 32.56055,-32.02539 -11.20898,-10.142583 -10.60352,10.660153 -1.18359,-0.002 0,-61.154295 c 0,-7.76349 6.25018,-14.01367 14.01367,-14.01367 l 11.13476,0 c 7.76349,0 14.01368,6.25018 14.01368,14.01367 l 0,6.52734 21.65039,0 0,-8.1289 c 0,-14.03603 -11.29991,-25.33594 -25.33594,-25.33594 l -28.76563,0 c -14.03602,0 -25.33593,11.29991 -25.33593,25.33594 l 0,62.712895 -0.83789,-0.002 -12.386718,-10.613293 -9.74024,10.142583 32.025388,32.02539 z"
       style="color:#000000;clip-rule:nonzero;display:inline;overflow:visible;visibility:visible;opacity:1;isolation:auto;mix-blend-mode:normal;color-interpolation:sRGB;color-interpolation-filters:linearRGB;solid-color:#000000;solid-opacity:1;fill:#8c96a1;fill-opacity:1;fill-rule:nonzero;stroke:none;stroke-width:4.5;stroke-linecap:round;stroke-linejoin:miter;stroke-miterlimit:4;stroke-dasharray:none;stroke-dashoffset:0;stroke-opacity:1;marker:none;color-rendering:auto;image-rendering:auto;shape-rendering:auto;text-rendering:auto;enable-background:accumulate"
       inkscape:connector-curvature="0" />
  </g>
  <path
     style="fill:url(#linearGradient4228);fill-opacity:1;fill-rule:evenodd;stroke:#0c4c75;stroke-width:0.5;stroke-linecap:butt;stroke-linejoin:miter;stroke-opacity:1;stroke-miterlimit:4;stroke-dasharray:none"
     d="M 136.50391 15.730469 C 122.46789 15.730469 111.16797 27.030376 111.16797 41.066406 L 111.16797 103.7793 L 110.33008 103.77734 L 97.943359 93.164062 L 88.203125 103.30664 L 120.22852 135.33203 L 152.78906 103.30664 L 141.58008 93.164062 L 130.97656 103.82422 L 129.79297 103.82227 L 129.79297 42.667969 C 129.79297 34.904479 136.04315 28.654297 143.80664 28.654297 L 154.94141 28.654297 C 162.7049 28.654297 168.95508 34.904479 168.95508 42.667969 L 168.95508 49.195312 L 190.60547 49.195312 L 190.60547 41.066406 C 190.60547 27.030376 179.30556 15.730469 165.26953 15.730469 L 136.50391 15.730469 z M 179.94141 55.929688 L 147.38086 87.955078 L 158.58984 98.097656 L 169.19336 87.4375 L 170.37695 87.439453 L 170.37695 148.59375 C 170.37695 156.35724 164.12677 162.60742 156.36328 162.60742 L 145.22852 162.60742 C 137.46503 162.60742 131.21484 156.35724 131.21484 148.59375 L 131.21484 142.06641 L 109.56445 142.06641 L 109.56445 150.19531 C 109.56445 164.23134 120.86436 175.53125 134.90039 175.53125 L 163.66602 175.53125 C 177.70204 175.53125 189.00195 164.23134 189.00195 150.19531 L 189.00195 87.482422 L 189.83984 87.484375 L 202.22656 98.097656 L 211.9668 87.955078 L 179.94141 55.929688 z M 295.01172 90.640625 L 326.65625 130.78711 L 291.61133 173.22461 L 320.64062 173.22461 L 339.99414 145.30078 L 359.74023 173.22461 L 386.94141 173.22461 L 352.54883 130.39453 L 384.84766 90.640625 L 358.04102 90.640625 L 339.60352 116.79492 L 322.21094 90.640625 L 295.01172 90.640625 z M 48.822266 90.923828 L 12.205078 172.94141 L 36.154297 172.94141 L 43.273438 155.55859 L 80.076172 155.55859 L 87.195312 172.94141 L 111.14453 172.94141 L 74.435547 90.923828 L 48.822266 90.923828 z M 226.42578 90.923828 L 189.80859 172.94141 L 213.75781 172.94141 L 220.87695 155.55859 L 257.67969 155.55859 L 264.79883 172.94141 L 288.74805 172.94141 L 252.03906 90.923828 L 226.42578 90.923828 z M 61.828125 110.26172 L 68.041016 125.85742 L 74.253906 141.45508 L 61.865234 141.48438 L 49.476562 141.51562 L 55.652344 125.88867 L 61.828125 110.26172 z M 239.43164 110.26172 L 245.64453 125.85742 L 251.85742 141.45508 L 239.46875 141.48438 L 227.08008 141.51562 L 233.25586 125.88867 L 239.43164 110.26172 z "
     id="path3338" />
</svg>
